X: 128
T: Aylar Geçiyor...
C: Selahaddin Pınar
O: Turkey
F: http://compmusic.upf.edu/node/140
N: rast--sarki--curcuna--aylar_geciyor--selahaddin_pinar
N: makam= rast
N: form= sarki
N: usul= curcuna = 10/8
M: 10/8
L: 1/16
K: C _1/4B ^f  
Q: 1/4=144
%%MIDI tuningsystem comma53
G4 =f3e d2d2 c2B3AG2  | G6G4G8-G2  | \
w:  Ay *  *  *  lar   |  ge çi yor   | 
ABcd cBc2 B2c2 d2d2 c2B2  | 
w:  sen  *  *  *  *  *  ba *  na  *  hâ  | 
B8-B2Bc B^ABc d_7/8edf  | e4 _7/8e2e2 d2e2 d2f3ed2  | 
w:  lâ  SAZ  |  *  ge le *  cek  | 
d6d2 c2B3AG6  | G4 =f3e d2d2 c2B3AG2  | \
w:  sin   SAZ  |  Ay *  *  *  lar   | 
G6G4G8-G2  | ABcd cBc2 B2c2 d2d2 c2B2  | 
w:  ge çi yor   |  sen  *  *  *  *  *  ba *  na  *  hâ  | 
B8-B2Bc B^ABc d_7/8edf  | e4 _7/8e2e2 d2e2 d2f3ed2  | 
w:  lâ  SAZ  |  *  ge le *  cek  | 
d8-d2d8-d2  | d3e f3e d2e2 f2gf g2e2  | \
w:  sin   SAZ  |   | 
d4 e2f2 g2fg afg6  | 
w:   | 
z4 f2g4g2 f2a3g=f2  | =f3e d2d4e2 f2fe d^cd2  | \
w:  Yet *  mez   |  mi  *  bu  *  has  | 
^c4 c2c2 d2B4d6  | 
w:  ret   | 
z4 e2=f4f8e2  | g4 =f2f2 e2e2 d2d2 c2B2  | \
w:  da ha  yıl  |  lar *  ca  *  mı  *  sür  | 
B8-B2B8-B2  | B3c d2e2 f2g2 =f2e2 d2c2  | 
w:  sün   SAZ  |   | 
B4 d2^c2 d2gf ged4z2  | d^cd2 g4 c'2c'2 _b2a2 g2=f2  | \
w:   |  Yet *  *  *  *  mez   | 
e4 d2d2 c2c2 B2d2 B2A2  | 
w:  mi  *  bu  *  has  | 
A14d6  | z4 G2G4G4g4a2  | ag=fe d2d2 c2c2 B2B3AG2  | \
w:  ret   |  da ha yıl  |  lar *  *  *  *  ca  *  mı  *  sür  | 
G4 G2G2 G2gf g_bag f_7/8edc  | 
w:  sün   SAZ  | 
d3_7/8e f2g2 a2_b8ag  | g2f_7/8e d2g2 f2e2 edde fgac'  | 
w:   |   | 
_b4 a2b4b8ag  | g3f _7/8e2e2 d2d2 c2d6  | \
w:  *  Hül *  yâ  |  la *  *  rı *  mın   | 
f6f4f2 g2f2 _7/8e2d2  | 
w:  men bâ ı  *  bir   | 
_7/8efga gfg4f4g4a2  | g2f2 _7/8e2d2 _b2a2 g2f2 e2d2  | \
w:  tâ  |  *  *  *  ze  *  çi *  çek  | 
d8-d2d4d6  | 
w:  sin   SAZ  | 
d3e f3e d2e2 f2gf g2e2  | d4 e2f2 g2fg afg6  | \
w:   |   | 
z4 f2g4g2 f2a3gf2  | 
w:  Bek *  let  | 
=f3e d2d4e2 f2fe d^cd2  | ^c4 c2c2 d2=B4d6  | \
w:  me  *  *  ya zık  |   | 
=f6f4f4f4e2  | 
w:  sen  de  so lar   | 
g4 =f2f2 e2e2 d2d2 c2B2  | B8-B2B4B6  | \
w:  sen  *  de  *  çü *  rür  |  sün   SAZ  | 
B3c d2e2 f2g3=fe2 d2c2  | 
w:   | 
B4 d2^c2 d2gf ged4z2  | d^cd2 g4 c'2c'2 _b2a2 g2=f2  | \
w:   |  Bek *  *  *  *  let  | 
e4 d2d2 c2c2 B2d2 B2A2  | 
w:  me  *  ya *  zık  | 
A14d4z2  | G6G4G4g4a2  | agfe d2d2 c2c2 B2B3AG2  | G16-G4  | 
w:   |  sen  de  so lar   |  sen  *  *  *  *  de  *  çü *  rür *  sün    |   | 
|


